ckanext/helixtheme/public/images/icons/resources/tiff.svg

<svg xmlns="http://www.w3.org/2000/svg" width="74" height="102" viewBox="0 0 74 102">
  <title>tiff</title>
  <g>
    <path d="M73.98,24.442a1.97658,1.97658,0,0,0-.478-1.295L53.838.682a.112.112,0,0,1-.016-.013,1.97774,1.97774,0,0,0-.398-.334c-.043-.028-.086-.054-.131-.078a1.96158,1.96158,0,0,0-.395-.165c-.037-.011-.07-.027-.107-.035A1.94933,1.94933,0,0,0,52.332,0H4A4.00467,4.00467,0,0,0,0,4V98a4.00531,4.00531,0,0,0,4,4H70a4.00531,4.00531,0,0,0,4-4V24.666A2.11837,2.11837,0,0,0,73.98,24.442ZM22.832,76.467H16.209V96.121H10.703V76.467H4.187V71.86H22.832Zm8.426,19.654H25.75V71.859h5.508ZM50.84,76.359H41.518v5.543h8.711v4.463H41.518v9.756H36.01V71.859H50.84Zm18.972,0H60.488v5.543H69.2v4.463H60.488v9.756H54.982V71.859h14.83ZM4,67.916V4H50.332V24.465a2.00073,2.00073,0,0,0,2,2H70V67.916Z"/>
    <path d="M57.298,30.166H36.786L35.29,27.154a1.62223,1.62223,0,0,0-1.405-.803H24.709a1.74256,1.74256,0,0,0-1.277.803l-1.406,3.012H16.7a4.019,4.019,0,0,0-4.017,4.02V58.303A4.01917,4.01917,0,0,0,16.7,62.324H57.299a4.01981,4.01981,0,0,0,4.02-4.021V34.186A4.02173,4.02173,0,0,0,57.298,30.166ZM42.928,56.494H36.907c-.829-1.91-1.843-4.973-3.376-4.619-1.691.385-2.597,4.1-2.713,4.619h-.029c-.116-.561-1.086-4.844-3.481-6.992-2.444-2.191-4.819,6.223-5.032,6.992H17.005V36.196H42.93V56.494Zm9.261-3.107a7.235,7.235,0,1,1,7.231-7.235A7.24455,7.24455,0,0,1,52.189,53.387Z"/>
    <path d="M52.189,39.721a6.431,6.431,0,1,0,6.43,6.431A6.439,6.439,0,0,0,52.189,39.721Zm-3.718,8.541-2.111-2.11,2.111-2.11Zm3.718,3.484-2.113-2.111h4.221Zm-2.113-9.078,2.113-2.11,2.106,2.11Zm5.362,5.594V44.041l2.11,2.11Z"/>
    <path d="M30.426,43.423a8.45261,8.45261,0,0,0,1.508-.131,5.284,5.284,0,0,0,1.875.326c1.787,0,3.233-.785,3.233-1.749,0-.965-1.446-1.747-3.233-1.747a5.28284,5.28284,0,0,0-1.813.299,1.23386,1.23386,0,0,0-.812-.299h-.473a1.11872,1.11872,0,0,0-1.141.926c-1.446.139-2.523.604-2.523,1.164C27.047,42.883,28.561,43.423,30.426,43.423Z"/>
    <circle cx="23.633" cy="41.556" r="1.448"/>
  </g>
</svg>

<?xml version="1.0" encoding="utf-8"?>
<!-- Generator: Adobe Illustrator 15.0.2, SVG Export Plug-In  -->
<!DOCTYPE svg PUBLIC "-//W3C//DTD SVG 1.1//EN" "http://www.w3.org/Graphics/SVG/1.1/DTD/svg11.dtd" [
	<!ENTITY ns_flows "http://ns.adobe.com/Flows/1.0/">
]>
<svg version="1.1"
	 xmlns="http://www.w3.org/2000/svg" xmlns:xlink="http://www.w3.org/1999/xlink" xmlns:a="http://ns.adobe.com/AdobeSVGViewerExtensions/3.0/"
	 x="0px" y="0px" width="126px" height="126px" viewBox="-26 -12 126 126"
	 overflow="visible" enable-background="new -26 -12 126 126" xml:space="preserve">
<defs>
</defs>
<path fill="#000000" d="M73.98,24.442c-0.006-0.468-0.156-0.929-0.478-1.295L53.838,0.682c-0.006-0.005-0.012-0.008-0.016-0.013
	c-0.117-0.132-0.254-0.239-0.398-0.334c-0.043-0.028-0.086-0.054-0.131-0.078c-0.125-0.069-0.256-0.124-0.395-0.165
	c-0.037-0.011-0.07-0.027-0.107-0.035C52.643,0.021,52.488,0,52.332,0H4C1.795,0,0,1.794,0,4v94c0,2.205,1.795,4,4,4h66
	c2.205,0,4-1.795,4-4V24.666C74,24.591,73.988,24.517,73.98,24.442z M22.832,76.467h-6.623v19.654h-5.506V76.467H4.187v-4.607
	h18.645V76.467z M31.258,96.121H25.75V71.859h5.508V96.121z M50.84,76.359h-9.322v5.543h8.711v4.463h-8.711v9.756H36.01V71.859
	h14.83V76.359z M69.812,76.359h-9.324v5.543H69.2v4.463h-8.712v9.756h-5.506V71.859h14.83V76.359z M4,67.916V4h46.332v20.465
	c0,1.104,0.896,2,2,2H70v41.451H4z"/>
<path fill="#000000" d="M57.298,30.166H36.786l-1.496-3.012c-0.241-0.388-0.692-0.803-1.405-0.803h-9.176
	c-0.445,0-0.992,0.364-1.277,0.803l-1.406,3.012H16.7c-2.218,0-4.017,1.8-4.017,4.02v24.117c0,2.221,1.799,4.021,4.017,4.021h40.599
	c2.221,0,4.02-1.8,4.02-4.021V34.186C61.316,31.966,59.52,30.166,57.298,30.166z M42.928,56.494h-6.021
	c-0.829-1.91-1.843-4.973-3.376-4.619c-1.691,0.385-2.597,4.1-2.713,4.619h-0.029c-0.116-0.561-1.086-4.844-3.481-6.992
	c-2.444-2.191-4.819,6.223-5.032,6.992h-5.271V36.196H42.93v20.298H42.928z M52.189,53.387c-3.99,0-7.236-3.247-7.236-7.235
	c0-3.99,3.246-7.235,7.236-7.235c3.987,0,7.231,3.245,7.231,7.235C59.422,50.141,56.178,53.387,52.189,53.387z"/>
<path fill="#000000" d="M52.189,39.721c-3.549,0-6.434,2.885-6.434,6.431c0,3.546,2.885,6.431,6.434,6.431
	c3.545,0,6.43-2.885,6.43-6.431C58.619,42.606,55.734,39.721,52.189,39.721z M48.471,48.262l-2.111-2.11l2.111-2.11V48.262z
	 M52.189,51.746l-2.113-2.111h4.221L52.189,51.746z M50.076,42.668l2.113-2.11l2.106,2.11H50.076z M55.438,48.262v-4.221l2.11,2.11
	L55.438,48.262z"/>
<path fill="#000000" d="M30.426,43.423c0.551,0,1.057-0.049,1.508-0.131c0.533,0.204,1.174,0.326,1.875,0.326
	c1.787,0,3.233-0.785,3.233-1.749c0-0.965-1.446-1.747-3.233-1.747c-0.67,0-1.295,0.107-1.813,0.299
	c-0.21-0.183-0.495-0.299-0.812-0.299h-0.473c-0.594,0-1.07,0.407-1.141,0.926c-1.446,0.139-2.523,0.604-2.523,1.164
	C27.047,42.883,28.561,43.423,30.426,43.423z"/>
<circle fill="#000000" cx="23.633" cy="41.556" r="1.448"/>
</svg>
